X:556
T:The lakes of Sligo
T:The lass of Gowrie
R:Polka
O:Ireland
B:Kerr's Third p42
B:Bulmer & Sharpley
B:Irish Fiddle Book p70
S:My arrangement from various sources
Z:Transcription, arrangement, chords:Mike Long
M:2/4
L:1/8
K:D
A|\
"D"FA AB|d>e dA|"G"BA B/c/d|"A"e>d ef|\
"D"FA AB|"D"de "(A)"f>e|"G"dB Af|"A"e2d:|
|:e|\
"D"fa de|"D"fa "(A)"ag/f/|"G"gb ef|"G"gb "(A)"b>a|\
"D"fa "A"ef/e/|"D"de f>e|"G"dB Af|"A"e2d:|
